X: 100180
M: 12/8
L: 1/8
Q: "Moderato."
K: F#m
uD |\
uf |\
{f}(e2d) {d}(c2B) (A2B) {dcB}(.c2.a) | {f}(e2d) {d}(c2B) AFF {GF^E}(.F2.a) |\
{f}(e2d) {d}(c2B) (A2B) {AB}(.c2.A) | {Bc}B>AB {AB}(c2B) AFE (.[E2C2].a) |
{f}(e2d) {d}(c2B) (A2B) {dc^B}(.c2.a) | {f}(e2d) {d}(c2B) AFF {GF^E}F2f/g/ |\
agf edc {Bc}B>AB cea | {fg}fed {d}(c2B) AFE [E2C2] "^D.C."|]


